Sources/FrostedUI/Resources/Icons.xcassets/bell16.imageset/bell-16.svg

<svg width="16" height="16" viewBox="0 0 16 16" fill="none" xmlns="http://www.w3.org/2000/svg" data-fui-icon="true">
  <g clip-path="url(#clip0_4063_731)">
    <path
      d="M6.5 13.0004C6.50017 13.901 7.14596 14.5003 8 14.5004C8.85409 14.5003 9.49982 13.901 9.5 13.0004H6.5ZM8 1.50037C6.25612 1.50037 5.26671 2.37355 4.6582 3.47791C4.02554 4.62648 3.82746 6.00537 3.77051 6.83533C3.73017 7.4221 3.53799 8.02767 3.13574 8.53064L2.8125 8.93494C2.33228 9.53574 2.35517 10.3952 2.86621 10.9701C3.16584 11.307 3.59502 11.5003 4.0459 11.5004L11.9541 11.5004C12.405 11.5003 12.8342 11.307 13.1338 10.9701C13.6449 10.3952 13.6677 9.53571 13.1875 8.93494L12.8643 8.53162C12.4618 8.02861 12.2699 7.42223 12.2295 6.83533C12.1725 6.00539 11.9744 4.62642 11.3418 3.47791C10.7333 2.3736 9.74376 1.50042 8 1.50037ZM11 13.0004C10.9998 14.7659 9.64556 16.0003 8 16.0004C6.35439 16.0003 5.00019 14.7659 5 13.0004H4.0459C3.1667 13.0003 2.32939 12.6241 1.74512 11.9672C0.748429 10.846 0.704606 9.16895 1.6416 7.99744L1.96484 7.59412C2.14289 7.37146 2.24999 7.0729 2.27344 6.73279C2.3357 5.82543 2.55488 4.18692 3.34473 2.7533C4.15916 1.2754 5.59935 0.000366211 8 0.000366211C10.4006 0.000423674 11.8409 1.27539 12.6553 2.7533C13.4451 4.18689 13.6633 5.82542 13.7256 6.73279C13.749 7.07298 13.857 7.37146 14.0352 7.59412L14.3584 7.99744C15.2955 9.16894 15.2517 10.8459 14.2549 11.9672C13.6706 12.6241 12.8333 13.0003 11.9541 13.0004H11Z"
      fill="currentColor"
    />
  </g>
  <defs>
    <clipPath id="clip0_4063_731"><path fill="currentColor" d="M0 0H16V16H0z" /></clipPath>
  </defs>
</svg>

<svg xmlns="http://www.w3.org/2000/svg" width="16" height="16" fill="none" data-fui-icon="true" viewBox="0 0 16 16"><g clip-path="url(#a)"><path fill="currentColor" d="M6.5 13c0 .901.646 1.5 1.5 1.5s1.5-.599 1.5-1.5zM8 1.5c-1.744 0-2.733.874-3.342 1.978-.632 1.148-.83 2.527-.887 3.357-.04.587-.233 1.193-.635 1.696l-.324.404A1.58 1.58 0 0 0 4.047 11.5h7.908a1.58 1.58 0 0 0 1.233-2.565l-.323-.403c-.402-.503-.594-1.11-.635-1.697-.056-.83-.255-2.209-.887-3.357C10.733 2.374 9.744 1.5 8 1.5M11 13c0 1.766-1.354 3-3 3s-3-1.234-3-3h-.954a3.08 3.08 0 0 1-2.404-5.003l.323-.403c.178-.223.285-.521.308-.861.063-.908.282-2.546 1.072-3.98C4.159 1.275 5.599 0 8 0c2.4 0 3.84 1.275 4.655 2.753.79 1.434 1.008 3.072 1.07 3.98.024.34.132.638.31.861l.323.403A3.08 3.08 0 0 1 11.954 13z"/></g><defs><clipPath id="a"><path fill="currentColor" d="M0 0h16v16H0z"/></clipPath></defs></svg>
